X:1
T:Title
%%score 1 { 2 | 3 }
L:1/8
Q:1/4=100
M:6/8
K:G
V:1 treble nm="Grand Piano, Soprano"
V:2 bass nm="Choir Pad, Christmas Carol (Smith)"
V:3 bass 
V:1
 D [B,DG]2 [B,DG] [DFA]2 | [DFA] [DGB]2- [DGB] [GBd]2 | [GB] [Ac]2- [Ac] [GB]2- | %3
w: By~E.~B.~Smith * * *|||
 [GB] [FA]2- [FA]2- [FA]/ z/ | D [B,DG]2 [B,DG] [DFA]2 | [DFA] [GB]2- [GB] [=Fd]2 | %6
w: |||
 [Ec] [DB]2- [DB] [CA]2- | [CA] [B,G]2- [B,G]2- [B,G]/ z/ | [Bd] [Bd]2 [GB] [ce]2 | %9
w: |||
 [Bd] [Bd]2- [Bd] [GB]2 | [GB] [Ac]2 [FA] [Fd]2 | [Ac] [Ac]2- [Ac] [FA]2 | [FA] [GB]2 [GB] [Gc]2 | %13
w: ||||
 [Fc] [=Fd]2- [Fd] [Ee]2 | [Ac] [GB]2- [GB] [FA]2- | [FA] G2- G3- | G3 z3 |] %17
w: ||||
V:2
 D, G,2 G, D,2 | D, G,2- G, G,2 | G, F,2- F, G,2- | G, D,2- D,2- D,/ z/ | D, G,2 G, D,2 | %5
 D, G,2- G, B,,2 | C, D,2- D, D,2- | D, G,,2- G,,2- G,,/ z/ | D D2 D D2 | D D2- D D2 | D D2 D D2 | %11
 D D2- D D2 | D[K:bass] G,2 G, A,2 | A, B,2- B,[K:treble] C2 | E D2- D C2- | C[K:bass] B,2- B,3- | %16
 B,3 z3 |] %17
V:3
 z6 | z6 | z6 | z6 | z6 | z6 | z6 | z6 | G, G,2 G, G,2 | G, G,2- G, G,2 | G, D,2 D, D,2 | %11
 D, D,2- D, D,2 | .D,3 z G,2 | G, G,2- G, C,2 | C, D,2- D, D,2- | D, G,,2- G,,3- | G,,3 z3 |] %17

